X:429
T: GESELLEN STIMMET MIT MIR EIN
N: E1622
O: Europa, Mitteleuropa, Deutschland, Ober - Rhein
R: Staende -, Handwerker -, Gesellen - Lied, Trink - Lied
M: 2/4
L: 1/8
K: G
D | GGAA | BBG
A | BBcc | ddB
d | edcB | A2z
B | ddee | ccA
B | ccdd | BBG
A | B2A2 | Ged
c | B2A2 | G2z
B | ddee | ccA
B | ccdd | BBG
A | B2A2 | Ged
c | B2A2 | G2z

